static/logos/mural-wordmark-color.svg

<svg width="100" height="19" viewBox="0 0 100 19" fill="none" xmlns="http://www.w3.org/2000/svg">
<g clip-path="url(#clip0_1_1911)">
<path d="M99.9731 18.1944C99.9731 18.3889 99.8064 18.5556 99.612 18.5556H81.8064C81.612 18.5556 81.4453 18.3889 81.4453 18.1944V0.361111C81.4453 0.166667 81.612 0 81.8064 0H99.612C99.8064 0 99.9731 0.166667 99.9731 0.361111V18.1944Z" fill="#FF0065"/>
<path d="M18.5556 18.1944C18.5556 18.3889 18.3889 18.5556 18.1944 18.5556H0.361111C0.166667 18.5556 0 18.3889 0 18.1944V0.361111C0 0.166667 0.166667 0 0.361111 0H18.1667C18.3611 0 18.5278 0.166667 18.5278 0.361111V18.1944H18.5556Z" fill="#FF0065"/>
<path d="M59.2743 0.555556C59.2743 0.25 59.0243 0 58.7187 0H41.2743C40.9687 0 40.7188 0.25 40.7188 0.555556V18C40.7188 18.3056 40.9687 18.5556 41.2743 18.5556H54.2743L59.2743 13.5556V0.555556Z" fill="#FF0065"/>
<path d="M38.915 18.1944C38.915 18.3889 38.7483 18.5556 38.5539 18.5556H20.7205C20.526 18.5556 20.3594 18.3889 20.3594 18.1944V0.361111C20.3594 0.166667 20.526 0 20.7205 0H38.5261C38.7205 0 38.8872 0.166667 38.8872 0.361111V18.1944H38.915Z" fill="#FF0065"/>
<path d="M79.6137 18.1944C79.6137 18.3889 79.447 18.5556 79.2526 18.5556H61.447C61.2526 18.5556 61.0859 18.3889 61.0859 18.1944V0.361111C61.0859 0.166667 61.2526 0 61.447 0H79.2526C79.447 0 79.6137 0.166667 79.6137 0.361111V18.1944Z" fill="#FF0065"/>
<path d="M50.2474 6.33333C50.5252 6.33333 50.9141 6.38891 51.0807 6.44447C51.6918 6.58336 52.1641 6.91666 52.4974 7.44444C53.0252 8.30555 52.9141 9.55555 51.9974 10.1667C51.8863 10.2222 51.803 10.3056 51.6918 10.3889C51.7196 10.4445 52.553 11.75 52.8585 12.1945C52.9141 12.25 52.8585 12.3611 52.7752 12.3611H50.9418C50.8585 12.3611 50.8029 12.3333 50.7474 12.25L49.7752 10.7222H48.9974V12.1389C48.9974 12.25 48.8863 12.3611 48.7752 12.3611H47.3863C47.2752 12.3611 47.1641 12.25 47.1641 12.1389V6.58336C47.1641 6.47225 47.2752 6.36111 47.3863 6.36111H50.2474V6.33333ZM48.9974 9.22224H50.2474C50.3585 9.22224 50.4696 9.19447 50.5807 9.13891C50.8307 9.0278 50.9418 8.80558 50.9418 8.5278C50.9418 8.22224 50.8307 8.08333 50.6085 7.94444C50.4696 7.86111 50.3307 7.83336 50.1918 7.83336C49.8029 7.83336 49.3863 7.83336 48.9974 7.83336V9.22224Z" fill="white"/>
<path d="M12.9184 6.52777V12.1111C12.9184 12.2222 12.8351 12.3056 12.724 12.3056H11.2795C11.1684 12.3056 11.0851 12.2222 11.0851 12.1111C11.0851 11.4444 11.0851 9.41666 11.0851 9.33333C10.5017 10.1389 9.89063 10.9444 9.30729 11.8056C9.19618 11.6389 7.55729 9.36113 7.47396 9.22224V12.1389C7.47396 12.25 7.39062 12.3334 7.27951 12.3334H5.83507C5.72396 12.3334 5.64062 12.25 5.64062 12.1389V6.52777C5.64062 6.41666 5.72396 6.33333 5.83507 6.33333H7.11285C7.1684 6.33333 7.22396 6.36111 7.27951 6.41666L9.25174 9.13891L11.2517 6.41666C11.2795 6.36111 11.3628 6.33333 11.4184 6.33333H12.724C12.8073 6.33333 12.9184 6.41666 12.9184 6.52777Z" fill="white"/>
<path d="M32.5834 6.33333C32.6945 6.33333 32.8056 6.41666 32.8056 6.55555V9.69447C32.7778 10.4167 32.5556 11.1111 32 11.6389C31.5556 12.0834 31 12.3056 30.3889 12.4167C30.0278 12.4722 29.6389 12.5 29.2778 12.4722C28.5 12.4167 27.7778 12.1667 27.2222 11.5834C26.8611 11.1945 26.6389 10.7222 26.5556 10.1667C26.5 9.88888 26.5 9.58333 26.5 9.30555C26.5 8.61111 26.5 7.13891 26.5 6.58336C26.5 6.47225 26.6111 6.36111 26.7222 6.36111H28.0834C28.1945 6.36111 28.3056 6.44447 28.3056 6.58336V9.2778C28.3056 9.58336 28.3334 9.91669 28.4445 10.1945C28.5556 10.4445 28.6945 10.6389 28.9445 10.7778C29.2778 10.9444 29.6111 10.9722 29.9722 10.8889C30.4445 10.8056 30.75 10.5278 30.8611 10.0556C30.9167 9.88891 30.9167 9.72225 30.9167 9.55558C30.9167 8.7778 30.9167 7.16669 30.9167 6.58336C30.9167 6.47225 31 6.36111 31.1389 6.36111H32.5834V6.33333Z" fill="white"/>
<path d="M71.2188 6.33333L73.8855 12.1389C73.9133 12.2222 73.8577 12.3334 73.7744 12.3334H72.1633C72.0522 12.3334 71.9688 12.2778 71.9133 12.1667L71.6633 11.5555H69.08L68.83 12.1667C68.7744 12.2778 68.6911 12.3334 68.58 12.3334H66.9688C66.8577 12.3334 66.8022 12.2222 66.8577 12.1389L69.5522 6.33333H71.2188ZM70.9688 10.1111L70.33 8.44444L69.6911 10.1111H70.9688Z" fill="white"/>
<path d="M90.224 6.55555V10.7778H92.7517C92.8628 10.7778 92.974 10.8889 92.974 11V12.1111C92.974 12.2222 92.8628 12.3334 92.7517 12.3334H88.6128C88.5017 12.3334 88.3906 12.2222 88.3906 12.1111V6.55555C88.3906 6.44444 88.5017 6.33333 88.6128 6.33333H89.974C90.1406 6.33333 90.224 6.41666 90.224 6.55555Z" fill="white"/>
<path d="M49.6094 18.5555L54.4149 13.7222H59.1094L54.276 18.5555H49.6094Z" fill="#B0044B"/>
<path d="M59.2813 13.5556H54.8368C54.5313 13.5556 54.2812 13.8056 54.2812 14.1111V18.5556L59.2813 13.5556Z" fill="#FF5BA0"/>
</g>
<defs>
<clipPath id="clip0_1_1911">
<rect width="100" height="18.6111" fill="white"/>
</clipPath>
</defs>
</svg>

<svg xmlns="http://www.w3.org/2000/svg" width="336.842" height="64" fill="none" viewBox="0 0 100 19"><g clip-path="url(#a)"><path fill="#FF0065" d="M99.973 18.194a.368.368 0 0 1-.361.362H81.806a.368.368 0 0 1-.36-.362V.361c0-.194.166-.361.36-.361h17.806c.194 0 .361.167.361.361v17.833ZM18.556 18.194a.368.368 0 0 1-.362.362H.361A.368.368 0 0 1 0 18.194V.361C0 .167.167 0 .361 0h17.806c.194 0 .36.167.36.361v17.833h.029ZM59.274.556A.557.557 0 0 0 58.72 0H41.274a.557.557 0 0 0-.555.556V18c0 .306.25.556.555.556h13l5-5v-13ZM38.915 18.194a.368.368 0 0 1-.361.362H20.72a.368.368 0 0 1-.36-.362V.361c0-.194.166-.361.36-.361h17.806c.194 0 .361.167.361.361v17.833h.028ZM79.614 18.194a.368.368 0 0 1-.361.362H61.447a.368.368 0 0 1-.361-.362V.361c0-.194.167-.361.361-.361h17.806c.194 0 .36.167.36.361v17.833Z"/><path fill="#fff" d="M50.247 6.333c.278 0 .667.056.834.111a2.187 2.187 0 0 1 1.416 1c.528.862.417 2.112-.5 2.723-.11.055-.194.139-.305.222.028.056.861 1.361 1.166 1.806.056.055 0 .166-.083.166h-1.833c-.084 0-.14-.028-.195-.111l-.972-1.528h-.778v1.417a.239.239 0 0 1-.222.222h-1.389a.239.239 0 0 1-.222-.222V6.583c0-.11.111-.222.222-.222h2.861v-.028Zm-1.25 2.89h1.25a.74.74 0 0 0 .334-.084c.25-.111.36-.333.36-.611 0-.306-.11-.445-.333-.584a.784.784 0 0 0-.416-.11h-1.195v1.388ZM12.918 6.528v5.583a.19.19 0 0 1-.194.195H11.28a.19.19 0 0 1-.195-.195V9.333c-.583.806-1.194 1.611-1.778 2.473-.11-.167-1.75-2.445-1.833-2.584v2.917a.19.19 0 0 1-.194.194H5.835a.19.19 0 0 1-.194-.194V6.528a.19.19 0 0 1 .194-.195h1.278c.055 0 .111.028.167.084l1.972 2.722 2-2.722c.027-.056.11-.084.166-.084h1.306c.083 0 .194.084.194.195ZM32.583 6.333a.22.22 0 0 1 .223.223v3.138c-.028.723-.25 1.417-.806 1.945-.444.444-1 .667-1.611.778-.361.055-.75.083-1.111.055-.778-.055-1.5-.305-2.056-.889a2.595 2.595 0 0 1-.666-1.416c-.056-.278-.056-.584-.056-.861V6.583c0-.11.111-.222.222-.222h1.361a.22.22 0 0 1 .223.222v2.695c0 .305.027.639.139.916.11.25.25.445.5.584.333.166.666.194 1.027.11.473-.082.778-.36.89-.832.055-.167.055-.334.055-.5V6.583a.22.22 0 0 1 .222-.222h1.444v-.028ZM71.219 6.333l2.666 5.806c.028.083-.027.194-.11.194h-1.612c-.11 0-.194-.055-.25-.166l-.25-.611H69.08l-.25.61c-.056.112-.139.167-.25.167h-1.611c-.111 0-.167-.11-.111-.194l2.694-5.806h1.667Zm-.25 3.778-.639-1.667-.639 1.667h1.278ZM90.224 6.556v4.222h2.528c.11 0 .222.11.222.222v1.111a.24.24 0 0 1-.222.222h-4.14a.239.239 0 0 1-.221-.222V6.556c0-.112.11-.223.222-.223h1.361c.167 0 .25.084.25.223Z"/><path fill="#B0044B" d="m49.61 18.555 4.805-4.833h4.694l-4.833 4.833h-4.667Z"/><path fill="#FF5BA0" d="M59.281 13.556h-4.444a.557.557 0 0 0-.556.555v4.445l5-5Z"/></g><defs><clipPath id="a"><path fill="#fff" d="M0 0h100v18.611H0z"/></clipPath></defs></svg>
